X: 40112
T: Tidal Wave Of Porridge
R: reel
M: 4/4
K: Bminor
|:f2ed eBBB|ABdB eBBB|1 f2ed eBBB|ABdf afdB:|2 ABfB eBdB|ABfB eBd2||
|:f2ed eBBB|ABdB eBBB|1 f2ed eBBB|ABdf afdB:|2 ABfB eBdB|ABfB eBdB||
|:G2GB d2G2|e2ed c2AF|BBdB eBfB|ABfB eBdB|
G2GB d2BG|e2ed c2a2-|afef edcd|cAFA Bdc/B/A|
G2GB d2G2|e2ed c2AF|BBdB eBfB|ABfB eBdB|
G2GB d2BG|e2ed c2a2-|afef edcd|cAFA B4:|

